X:1
T:Irene (Freylinghausen), 66.77.77
T:From Johann A. Freylinghausen (1670-1739)
T:Irene (Freylinghausen), 66.77.77
T:Public Domain
C:From Johann A. Freylinghausen (1670-1739)
Z:Public Domain
%%score ( 1 2 ) ( 3 4 )
L:1/8
M:4/4
K:C
V:1 treble 
V:2 treble 
V:3 bass 
V:4 bass 
V:1
 [Ec]2 | [CG]2 [CA]2 [CG]2 [B,F]2 | [CE]6 [CG]2 | [CA]2 [CD]2 [CE]2 [B,D]2 | C4 [CE]2 C2 | %5
 [DG]2 [B,G]2 [DA]2 [Dd]2 | [DB]4 [EA]2 [GB]2 | [Gc]2 [Ge]2 [Fd]2 [DB]2 | [Ec]4 [Gd]2 [Ge]2 | %9
 [^Fd]2 [DB]2 (AB) [Ec]2 | [Dd]4 [Gc]2 [FA]2 | G2 [Ec]2 [CE]2 [B,D]2 | C6 |] %13
V:2
 x2 | x8 | x8 | x8 | C4 C2 x2 | x8 | x8 | x8 | x8 | x4 E2 x2 | x8 | G2 x6 | C6 |] %13
V:3
 [C,G,]2 | [E,G,]2 F,2 [E,G,]2 [D,G,]2 | [C,G,]6 [E,G,]2 | F,2 [F,A,]2 G,2 [G,,F,]2 | %4
 [C,E,]4 [C,G,]2 [E,G,]2 | [B,,G,]2 [E,G,]2 [D,G,]2 [D,^F,]2 | [G,,G,]4 [G,C]2 [F,D]2 | %7
 [E,C]2 [C,C]2 [F,A,]2 G,2 | [C,G,]4 [G,B,]2 [C,C]2 | [D,A,]2 G,2 (CB,) [G,A,]2 | %10
 (A,2 B,2) [E,C]2 [F,C]2 | [E,C]2 [C,G,]2 [G,,G,]2 [G,,F,]2 | [C,E,]6 |] %13
V:4
 x2 | x2 F,2 x4 | x8 | F,2 G,2 x4 | x8 | x8 | x8 | x6 G,2 | x8 | x2 G,2 G,2 x2 | F,4 x4 | x8 | %12
 x6 |] %13

